X:1
T:Title
%%score { ( 1 3 ) | ( 2 4 ) }
L:1/8
Q:1/4=126
M:6/4
K:G
V:1 treble nm="Grand Piano"
V:3 treble 
V:2 bass 
V:4 bass 
V:1
 [DB]2 [^C_B]2 [D=B]2 [Ec]2 [DB]2 [^DA]2 | [EG]2 [DF]2 E2 D6 | %2
w: DeLoss~Smith * * * * *||
 [B,D]2 [CE]2 [CF]2 [B,G]2 [CA]2 [DB]2 | d12 | [DB]2 [^C_B]2 [D=B]2 [Ec]2 [DB]2 [^DA]2 | %5
w: |||
 [EG]2 [DF]2 E2 D6 | G2 F2 G2 [^CA]2 [CE]2 [CB]2 | [CA]12 | [DB]3 [CA] [B,G]2 [B,G]2 [CA]2 B2 | %9
w: ||||
 d12 | [Fc]3 [FB] [FA]2 F2 G2 A2 | [DB]6- [DB]4 [B,D]2 | [B,D]2 [_B,^C]2 [=CE]2 [=B,D]2 [DG]2 A2 | %13
w: ||||
 B2 c2 d2 [Ed]2 [Ec]4 | B3 c B2 B G3 A2 | G12 |] %16
w: |||
V:2
 [G,,G,]2 [G,,G,]2 [G,,G,]2 [G,,G,]2 [G,,G,]2 [B,,G,]2 | [C,G,]2 [C,G,]2 [C,G,C]2 [G,B,]6 | %2
 [G,,G,]2 [C,G,]2 [A,,D,]2 [G,,D,]2 [G,,D,]2 [G,,G,]2 | A,6 z6 | %4
 [G,,G,]2 [G,,G,]2 [G,,G,]2 [G,,G,]2 [G,,G,]2 [B,,G,]2 | [C,G,]2 [C,G,]2 [C,G,C]2 [G,B,]6 | %6
 [E,G,B,]2 [E,G,B,]2 [E,G,B,]2 [A,,E,]2 [A,,A,]2 [A,,G,]2 | [D,F,]12 | %8
 [G,,G,]3 [G,,G,] [G,,G,]2 [G,,G,]2 [G,,G,]2 [G,D]2 | D,2- [D,-C]2 [D,-B,]2 [D,A,]6 | %10
 [D,A,]3 [D,D] [D,D]2 [D,CD]2 [D,B,D]2 [D,F,D]2 | G,6 z6 | %12
 [G,,G,]2 [G,,G,]2 [G,,G,]2 [G,,G,]2 [B,,G,]2 [D,F,D]2 | %13
 [G,D]2 [G,A,D]2 [G,B,=F]2[K:bass] [C,G,C]2 [C,G,]4 | %14
 [D,G,D]3 [D,A,D] [D,G,D]2 [D,G,D] [D,B,D]3 [D,F,C]2 | z2 F,2 E,2 D,6 |] %16
V:3
 x12 | x12 | x12 | F2- [F-A]2 [FG]2 F4 [Ec]2 | x12 | x12 | x12 | x12 | x12 | F2 A2 G2 F6 | x12 | %11
 x12 | x12 | x12 | x12 | [G,B,]2 D2 C2 B,6 |] %16
V:4
 x12 | x12 | x12 | D,2- [D,-C]2 [D,-B,]2 [D,A,]4 [D,F,]2 | x12 | x12 | x12 | x12 | x12 | .A,6 z6 | %10
 x12 | G,,2 B,,2 D,2 G,4 [G,,G,]2 | x12 | x6[K:bass] x6 | x12 | G,,12 |] %16

